X:733
T:Highland Cathedral 
C:Joe Buchanan's Scottish Tome - Page 517.0
I:517 0
Z:Carl Allison
R:Reel
L:1/8
M:4/4
K:D
"D"(d6 ef) | "D"(e2 d2) (A2 d2) | "A7"(e6 f2) | "D"f8 |
"D"(f6 ga) | "G"(g2 f2) (e2 d2) | "F#m7"(e6 f2) | "A7"A8 |
"G"(B6 cd) | "D"(d2 A2) (c2 d2) | "A"(a6 g2) | "Bm"f8 |
"Em"(e6 fg) | "D"(g2 d2) (A2 d2) | "A7"(e6 d2) | "D"d8 |]
"A"(c6 A2) | "C#m"(e6 ce) | "F#m"(f6 c2) | "F#m"(c4 B4) |
"D"(A6 Bc) | "E7"B8 | "A"(c4 d2 e2) | "E7"B8 |
"A"(c6 A2) | "C#m"(e6 ce) | "F#m"(f6 c2) | "C#m"(c4 B4) |
"Bm"(A6 Bc) | "E7"(B6 A2) | "A"A8- | "A"A8 |]
W:Errata: Changed the third chord in line from "F7" to "F#m7".

